www/assets/icons/cached.svg

<svg xmlns="http://www.w3.org/2000/svg" width="24" height="24" viewBox="0 0 24 24" fill='currentColor'><path d="m19 8-4 4h3c0 3.31-2.69 6-6 6a5.9 5.9 0 0 1-2.8-.7l-1.46 1.46A7.93 7.93 0 0 0 12 20c4.42 0 8-3.58 8-8h3zM6 12c0-3.31 2.69-6 6-6 1.01 0 1.97.25 2.8.7l1.46-1.46A7.93 7.93 0 0 0 12 4c-4.42 0-8 3.58-8 8H1l4 4 4-4z"/></svg>

<svg width="24" height="24" viewBox="0 0 24 24" xmlns="http://www.w3.org/2000/svg" fill='currentColor'><path d="M19 8L15 12H18C18 15.31 15.31 18 12 18C10.99 18 10.03 17.75 9.2 17.3L7.74 18.76C8.97 19.54 10.43 20 12 20C16.42 20 20 16.42 20 12H23L19 8ZM6 12C6 8.69 8.69 6 12 6C13.01 6 13.97 6.25 14.8 6.7L16.26 5.24C15.03 4.46 13.57 4 12 4C7.58 4 4 7.58 4 12H1L5 16L9 12H6Z"/></svg>
